testes/gustavofaria/.github/logo.svg

<svg width="135" height="53" viewBox="0 0 135 53" fill="none" xmlns="http://www.w3.org/2000/svg">
	<g clip-path="url(#clip0)">
		<path d="M-0.100006 20.6001V13.9001C-0.100006 10.9001 1.69999 8.40006 4.59999 7.50006C7.79999 6.50006 11.1 7.50006 13 10.2001C13.3 10.6001 13.3 10.8001 12.9 11.2001C12.4 11.7001 11.9 12.2001 11.3 12.7001C11 13.0001 10.8 13.0001 10.5 12.7001C10.1 12.4001 9.79999 12.1001 9.39999 11.8001C8.89999 11.4001 8.29999 11.1001 7.59999 11.0001C6.39999 10.7001 5.49999 11.2001 4.69999 12.1001C3.99999 12.9001 3.59999 13.8001 3.59999 14.8001C3.49999 17.9001 3.59999 21.1001 3.59999 24.2001C3.59999 25.2001 3.59999 26.1001 3.69999 27.1001C3.69999 29.0001 6.19999 31.0001 8.29999 30.0001C9.09999 29.6001 9.89999 29.2001 10.5 28.5001C10.8 28.2001 11 28.2001 11.3 28.5001C11.9 29.0001 12.5 29.6001 13.1 30.2001C13.4 30.4001 13.4 30.7001 13.1 31.0001C11.9 32.7001 10.2 33.8001 8.09999 34.0001C6.19999 34.2001 4.29999 33.9001 2.69999 32.8001C0.899994 31.5001 -0.100006 29.7001 -0.100006 27.4001C-0.100006 25.1001 -0.100006 22.9001 -0.100006 20.6001Z" fill="#0DC2EF"/>
		<path d="M15.7 25.1C15.7 22.5 15.7 19.8 15.7 17.2C15.7 16.5 15.8 16.5 16.4 16.5C17.1 16.5 17.8 16.5 18.5 16.5C18.9 16.5 19.1 16.7 19.1 17.1C19.1 17.3 19.1 17.5 19.1 17.6C19.1 17.8 19.2 18 19.4 18.1C19.6 18.2 19.8 18.1 19.9 18C20.7 17.4 21.5 16.9 22.5 16.7C23.3 16.6 24.1 16.6 24.9 16.8C25.3 16.9 25.4 17.1 25.3 17.5C25.1 18.3 24.9 19.1 24.6 19.9C24.5 20.3 24.4 20.4 23.9 20.4C23.1 20.4 22.4 20.3 21.6 20.5C20.2 20.8 19.5 21.7 19.4 23.1C19.3 24.5 19.4 26 19.4 27.4C19.4 29.3 19.4 31.2 19.4 33C19.4 33.5 19.3 33.6 18.8 33.6C18 33.6 17.2 33.6 16.4 33.6C15.9 33.6 15.7 33.5 15.7 32.9C15.7 30.5 15.7 27.8 15.7 25.1Z" fill="#0DC2EF"/>
		<path d="M134 22C133 16.1 130.1 11.1 125.6 7.10003C121 3.00003 115.7 0.800034 109.6 0.500034C106.9 0.300034 104.1 0.600034 101.5 1.30003C93.8 3.40003 88.1 8.10003 84.5 15.3C84.5 15.3 84.5 15.3 84.5 15.4C86.6 15.8 88.1 16.7 89 18.2C89.6 19.2 89.9 20.3 90 21.7C90.1 22.9 90.1 24.2 90 25.2C90 25.8 90 26.5 90 27V33.1C90 34.2 89.5 34.7 88.5 34.7H87.7C87.2 34.7 86.7 34.7 86.2 34.7C85.6 34.7 85.2 34.5 84.9 34C84.4 34.3 83.8 34.5 83.3 34.7C83.3 34.8 83.3 34.9 83.4 35C85 39.8 87.8 43.8 91.7 47C98.1 52.1 105.3 53.9 113.3 52.4C119.4 51.3 124.4 48.3 128.4 43.5C133.5 37.2 135.4 30 134 22ZM120.9 34.6C118.1 35 115.6 34.5 113.3 32.7C111.6 31.3 110.6 29.5 110.2 27.3C109.9 25.3 110.2 23.4 111 21.6C111.2 21.3 111.4 21.1 111.8 21.1C113 21.1 114.2 21.1 115.4 21.1C115.6 21.1 115.9 21.1 116 21.4C116.1 21.6 116 21.8 115.8 22C115 22.9 114.7 24 114.6 25.2C114.5 26.5 114.7 27.7 115.3 28.8C117 31.7 121.2 31.9 123.1 29.1C124.5 27 124.4 23.8 122.8 22C121.9 20.9 120.7 20.4 119.3 20.4C115.7 20.4 112.2 20.4 108.6 20.4C108.3 20.4 108.3 20.6 108.3 20.8C108.3 25.4 108.3 30.1 108.3 34.7C108.3 36.4 107.9 38 106.9 39.4C105.8 40.9 104.3 41.7 102.5 42.1C99.8 42.6 97.2 42.3 94.7 41C94 40.7 93.5 40.2 93.1 39.6C92.4 38.6 92.5 37.1 93.2 36.3C93.9 35.5 95 35.3 96 35.7C97 36.1 97.5 37 97.4 38.1C97.4 38.4 97.4 38.5 97.7 38.5C98.9 38.8 100.1 39 101.3 38.7C102.9 38.3 103.9 37.2 104.2 35.5C104.3 35.1 104.3 34.7 104.3 34.3C104.3 30.3 104.3 26.3 104.3 22.2C104.3 21.9 104.2 21.8 104 21.6C102.6 20.7 101.1 20.3 99.4 20.6C97.6 20.9 96.3 22.3 96 24.2C95.8 25.2 95.8 26.3 96.1 27.3C96.8 29.7 98.9 30.5 100.9 30.3C101.6 30.2 102.2 30 102.8 29.7C103.2 29.5 103.6 29.6 103.6 30.1C103.6 30.8 103.6 31.4 103.6 32.1C103.6 32.3 103.5 32.5 103.3 32.6C101.9 33.7 100.3 34 98.6 33.9C96 33.6 93.9 32.4 92.6 30.1C91.7 28.5 91.3 26.8 91.5 25C91.7 22 92.9 19.6 95.5 17.9C98.3 16.1 101.7 16.3 104.3 18.4C104.4 18.4 104.4 18.5 104.5 18.5C104.5 18 104.5 17.5 104.5 17C104.5 16.8 104.6 16.7 104.8 16.7C105.3 16.7 105.8 16.7 106.4 16.7C111 16.7 115.6 16.6 120.2 16.7C125 16.8 128.4 20.1 128.9 24.6C129 29.6 125.8 33.9 120.9 34.6Z" fill="#0DC2EF"/>
		<path d="M70.4 20.7C70.2 22.1 69.3 23.1 67.9 23.3C66.7 23.5 65.6 23.4 64.6 22.4C64.1 21.8 63.9 21.1 63.8 20.4C63.5 18.4 63.5 16.5 63.9 14.5C64.2 13.1 65.4 12.1 67 12C68.1 12 69 12.2 69.7 13.1C70.3 13.9 70.5 14.8 70.5 15.7C70.5 16.4 70.5 17.2 70.5 17.9C70.5 18.8 70.5 19.8 70.4 20.7ZM74.1 13.7C73.7 11.7 72.7 10.2 70.8 9.40005C68.6 8.50005 66.4 8.70005 64.3 9.80005C63.9 10 63.6 9.90005 63.5 9.40005C63.5 9.00005 63.3 8.90005 62.9 8.80005C62.2 8.80005 61.4 8.80005 60.7 8.80005C60.1 8.80005 60 8.90005 60 9.60005V21.3V33.1C60 33.7 60.1 33.8 60.7 33.8C61.5 33.8 62.3 33.8 63.1 33.8C63.7 33.8 63.9 33.7001 63.9 33C63.9 30.8 63.9 28.7001 63.9 26.5C63.9 25.8 64.1 25.6 64.8 25.9C66.4 26.6 68 26.7 69.6 26.4C72.3 25.8 74.3 23.5 74.4 20.7C74.4 19.8 74.5 18.8 74.5 17.9C74.3 16.5 74.3 15.1 74.1 13.7Z" fill="#0DC2EF"/>
		<path d="M53.2 28.1C52.9 29.7 51.7 30.7 50 30.8C48.1 30.8 46.9 29.8 46.7 27.8C46.6 26.8 46.7 25.9 46.6 24.9C46.6 24.1 46.6 23.2 46.7 22.4C46.9 20.6 48.1 19.5 49.8 19.5C51.1 19.5 52.2 19.8 52.9 21C53.2 21.6 53.4 22.3 53.4 23C53.5 24.7 53.5 26.4 53.2 28.1ZM57.1 9.50002C57.1 9.00002 57 8.90002 56.5 8.90002C55.7 8.90002 54.9 8.90002 54.1 8.90002C53.5 8.90002 53.4 9.10003 53.4 9.60003C53.4 11.9 53.4 14.1 53.4 16.4C53.4 17 53.1 17.2 52.6 16.9C51.1 16.2 49.6 16.1 48 16.4C44.6 17 43.1 19.8 43 21.9C43 22.6 42.9 23.4 42.9 24.1C42.9 25.7 42.8 27.3 43 28.9C43.3 31.1 44.3 32.7 46.5 33.5C48.7 34.3 50.9 34.2 53 33C53.4 32.8 53.7 32.9 53.8 33.4C53.9 33.7 54 33.8 54.3 33.8C55.1 33.8 55.8 33.8 56.6 33.8C57.2 33.8 57.3 33.7 57.3 33.1C57.3 29.2 57.3 25.2 57.3 21.3C57.1 17.4 57.1 13.4 57.1 9.50002Z" fill="#0DC2EF"/>
		<path d="M81.8 31.0001C79.9 31.0001 78.6 29.8001 78.6 28.0001C78.6 26.1001 79.9 24.8001 81.9 24.8001C83.8 24.8001 85 26.0001 85 27.9001C85 29.7001 83.7 31.0001 81.8 31.0001ZM89.1 21.7001C89 20.6001 88.8 19.6001 88.3 18.6001C87.3 17.0001 85.8 16.3001 84 16.1001C81.6 15.8001 79.3 16.4001 77.1 17.2001C76.8 17.3001 76.7 17.5001 76.8 17.8001C77 18.4001 77.2 19.0001 77.4 19.6001C77.5 19.9001 77.7 20.0001 78 19.9001C78.1 19.9001 78.2 19.8001 78.3 19.8001C79.6 19.4001 81 19.1001 82.4 19.1001C82.7 19.1001 83.1 19.1001 83.4 19.2001C84.8 19.6001 85.4 20.4001 85.4 21.9001C85.4 22.3001 85.1 22.5001 84.7 22.3001C83.2 21.6001 81.7 21.5001 80.1 21.8001C77.8 22.3001 76.1 23.5001 75.5 25.9001C75.1 27.4001 75.2 28.9001 75.7 30.4001C76.1 31.5001 76.9 32.5001 78 33.0001C80.3 34.1001 82.6 34.2001 84.8 32.8001C85.3 32.5001 85.5 32.6001 85.6 33.1001C85.7 33.4001 85.8 33.5001 86.1 33.5001C86.9 33.5001 87.6 33.5001 88.4 33.5001C89 33.5001 89.1 33.4001 89.1 32.8001C89.1 31.3001 89.1 23.6001 89.1 21.7001Z" fill="#0DC2EF"/>
		<path d="M36.2 23.2C35.2 23.2 34.3 23.2 33.3 23.2C32.4 23.2 31.4 23.2 30.5 23.2C30.1 23.2 29.9 23 29.9 22.6C29.9 22.3 30 21.9 30.1 21.6C30.4 20.3 31.3 19.7 32.6 19.5C34 19.3 35.2 19.5 36.1 20.7C36.6 21.3 36.7 22.1 36.7 22.8C36.7 23 36.5 23.2 36.2 23.2ZM40.3 21.9C40 19.7 38.9 18 36.9 17C35.2 16.2 33.5 16 31.7 16.3C28.7 16.8 26.4 19.2 26.1 22.2C25.9 24.2 25.9 26.1 26 28.1C26.1 29.7 26.7 31.2 27.9 32.3C30.2 34.3 32.9 34.5 35.7 33.7C37.3 33.3 38.4 32 39.4 30.8C39.6 30.6 39.5 30.3 39.3 30.1C38.8 29.7 38.3 29.4 37.9 29.1C37.3 28.7 37.3 28.7 36.8 29.2C35.8 30.1 34.8 30.9 33.4 31C31.7 31.1 30.3 30.1 29.9 28.5C29.8 27.9 29.8 27.4 29.8 26.8C29.8 26.3 30 26.1 30.5 26.1C32 26.1 33.6 26.1 35.1 26.1C36.7 26.1 38.2 26.1 39.8 26.1C40.2 26.1 40.4 26 40.4 25.6C40.4 24.2 40.4 23.1 40.3 21.9Z" fill="#0DC2EF"/>
	</g>
	<defs>
		<clipPath id="clip0">
			<rect width="135" height="53" fill="white"/>
		</clipPath>
	</defs>
</svg>

<?xml version="1.0" encoding="utf-8"?>
<!-- Generator: Adobe Illustrator 24.0.1, SVG Export Plug-In . SVG Version: 6.00 Build 0)  -->
<svg version="1.1" id="Layer_1" xmlns="http://www.w3.org/2000/svg" xmlns:xlink="http://www.w3.org/1999/xlink" x="0px" y="0px"
	 viewBox="0 0 135 53" style="enable-background:new 0 0 135 53;" xml:space="preserve">
<style type="text/css">
	.st0{fill:#0DC2EF;}
</style>
<g>
	<path class="st0" d="M-0.1,20.6v-6.7c0-3,1.8-5.5,4.7-6.4c3.2-1,6.5,0,8.4,2.7c0.3,0.4,0.3,0.6-0.1,1c-0.5,0.5-1,1-1.6,1.5
		c-0.3,0.3-0.5,0.3-0.8,0c-0.4-0.3-0.7-0.6-1.1-0.9c-0.5-0.4-1.1-0.7-1.8-0.8c-1.2-0.3-2.1,0.2-2.9,1.1c-0.7,0.8-1.1,1.7-1.1,2.7
		c-0.1,3.1,0,6.3,0,9.4c0,1,0,1.9,0.1,2.9C3.7,29,6.2,31,8.3,30c0.8-0.4,1.6-0.8,2.2-1.5c0.3-0.3,0.5-0.3,0.8,0
		c0.6,0.5,1.2,1.1,1.8,1.7c0.3,0.2,0.3,0.5,0,0.8c-1.2,1.7-2.9,2.8-5,3c-1.9,0.2-3.8-0.1-5.4-1.2c-1.8-1.3-2.8-3.1-2.8-5.4
		C-0.1,25.1-0.1,22.9-0.1,20.6"/>
	<path class="st0" d="M15.7,25.1c0-2.6,0-5.3,0-7.9c0-0.7,0.1-0.7,0.7-0.7c0.7,0,1.4,0,2.1,0c0.4,0,0.6,0.2,0.6,0.6
		c0,0.2,0,0.4,0,0.5c0,0.2,0.1,0.4,0.3,0.5c0.2,0.1,0.4,0,0.5-0.1c0.8-0.6,1.6-1.1,2.6-1.3c0.8-0.1,1.6-0.1,2.4,0.1
		c0.4,0.1,0.5,0.3,0.4,0.7c-0.2,0.8-0.4,1.6-0.7,2.4c-0.1,0.4-0.2,0.5-0.7,0.5c-0.8,0-1.5-0.1-2.3,0.1c-1.4,0.3-2.1,1.2-2.2,2.6
		s0,2.9,0,4.3c0,1.9,0,3.8,0,5.6c0,0.5-0.1,0.6-0.6,0.6c-0.8,0-1.6,0-2.4,0c-0.5,0-0.7-0.1-0.7-0.7C15.7,30.5,15.7,27.8,15.7,25.1"
		/>
	<path class="st0" d="M134,22c-1-5.9-3.9-10.9-8.4-14.9c-4.6-4.1-9.9-6.3-16-6.6c-2.7-0.2-5.5,0.1-8.1,0.8c-7.7,2.1-13.4,6.8-17,14
		c0,0,0,0,0,0.1c2.1,0.4,3.6,1.3,4.5,2.8c0.6,1,0.9,2.1,1,3.5l0,0c0.1,1.2,0.1,2.5,0,3.5c0,0.6,0,1.3,0,1.8v6.1
		c0,1.1-0.5,1.6-1.5,1.6h-0.8c-0.5,0-1,0-1.5,0c-0.6,0-1-0.2-1.3-0.7c-0.5,0.3-1.1,0.5-1.6,0.7c0,0.1,0,0.2,0.1,0.3
		c1.6,4.8,4.4,8.8,8.3,12c6.4,5.1,13.6,6.9,21.6,5.4c6.1-1.1,11.1-4.1,15.1-8.9C133.5,37.2,135.4,30,134,22z M120.9,34.6
		c-2.8,0.4-5.3-0.1-7.6-1.9c-1.7-1.4-2.7-3.2-3.1-5.4c-0.3-2,0-3.9,0.8-5.7c0.2-0.3,0.4-0.5,0.8-0.5c1.2,0,2.4,0,3.6,0
		c0.2,0,0.5,0,0.6,0.3c0.1,0.2,0,0.4-0.2,0.6c-0.8,0.9-1.1,2-1.2,3.2c-0.1,1.3,0.1,2.5,0.7,3.6c1.7,2.9,5.9,3.1,7.8,0.3
		c1.4-2.1,1.3-5.3-0.3-7.1c-0.9-1.1-2.1-1.6-3.5-1.6c-3.6,0-7.1,0-10.7,0c-0.3,0-0.3,0.2-0.3,0.4c0,4.6,0,9.3,0,13.9
		c0,1.7-0.4,3.3-1.4,4.7c-1.1,1.5-2.6,2.3-4.4,2.7c-2.7,0.5-5.3,0.2-7.8-1.1c-0.7-0.3-1.2-0.8-1.6-1.4c-0.7-1-0.6-2.5,0.1-3.3
		s1.8-1,2.8-0.6s1.5,1.3,1.4,2.4c0,0.3,0,0.4,0.3,0.4c1.2,0.3,2.4,0.5,3.6,0.2c1.6-0.4,2.6-1.5,2.9-3.2c0.1-0.4,0.1-0.8,0.1-1.2
		c0-4,0-8,0-12.1c0-0.3-0.1-0.4-0.3-0.6c-1.4-0.9-2.9-1.3-4.6-1c-1.8,0.3-3.1,1.7-3.4,3.6c-0.2,1-0.2,2.1,0.1,3.1
		c0.7,2.4,2.8,3.2,4.8,3c0.7-0.1,1.3-0.3,1.9-0.6c0.4-0.2,0.8-0.1,0.8,0.4c0,0.7,0,1.3,0,2c0,0.2-0.1,0.4-0.3,0.5
		c-1.4,1.1-3,1.4-4.7,1.3c-2.6-0.3-4.7-1.5-6-3.8c-0.9-1.6-1.3-3.3-1.1-5.1c0.2-3,1.4-5.4,4-7.1c2.8-1.8,6.2-1.6,8.8,0.5
		c0.1,0,0.1,0.1,0.2,0.1c0-0.5,0-1,0-1.5c0-0.2,0.1-0.3,0.3-0.3c0.5,0,1,0,1.6,0c4.6,0,9.2-0.1,13.8,0c4.8,0.1,8.2,3.4,8.7,7.9
		C129,29.6,125.8,33.9,120.9,34.6z"/>
	<path class="st0" d="M70.4,20.7c-0.2,1.4-1.1,2.4-2.5,2.6c-1.2,0.2-2.3,0.1-3.3-0.9c-0.5-0.6-0.7-1.3-0.8-2c-0.3-2-0.3-3.9,0.1-5.9
		c0.3-1.4,1.5-2.4,3.1-2.5c1.1,0,2,0.2,2.7,1.1c0.6,0.8,0.8,1.7,0.8,2.6c0,0.7,0,1.5,0,2.2C70.5,18.8,70.5,19.8,70.4,20.7
		 M74.1,13.7c-0.4-2-1.4-3.5-3.3-4.3c-2.2-0.9-4.4-0.7-6.5,0.4c-0.4,0.2-0.7,0.1-0.8-0.4c0-0.4-0.2-0.5-0.6-0.6c-0.7,0-1.5,0-2.2,0
		c-0.6,0-0.7,0.1-0.7,0.8v11.7v11.8c0,0.6,0.1,0.7,0.7,0.7c0.8,0,1.6,0,2.4,0c0.6,0,0.8-0.1,0.8-0.8c0-2.2,0-4.3,0-6.5
		c0-0.7,0.2-0.9,0.9-0.6c1.6,0.7,3.2,0.8,4.8,0.5c2.7-0.6,4.7-2.9,4.8-5.7c0-0.9,0.1-1.9,0.1-2.8C74.3,16.5,74.3,15.1,74.1,13.7"/>
	<path class="st0" d="M53.2,28.1c-0.3,1.6-1.5,2.6-3.2,2.7c-1.9,0-3.1-1-3.3-3c-0.1-1,0-1.9-0.1-2.9c0-0.8,0-1.7,0.1-2.5
		c0.2-1.8,1.4-2.9,3.1-2.9c1.3,0,2.4,0.3,3.1,1.5c0.3,0.6,0.5,1.3,0.5,2C53.5,24.7,53.5,26.4,53.2,28.1 M57.1,9.5
		c0-0.5-0.1-0.6-0.6-0.6c-0.8,0-1.6,0-2.4,0c-0.6,0-0.7,0.2-0.7,0.7c0,2.3,0,4.5,0,6.8c0,0.6-0.3,0.8-0.8,0.5
		c-1.5-0.7-3-0.8-4.6-0.5c-3.4,0.6-4.9,3.4-5,5.5c0,0.7-0.1,1.5-0.1,2.2c0,1.6-0.1,3.2,0.1,4.8c0.3,2.2,1.3,3.8,3.5,4.6
		s4.4,0.7,6.5-0.5c0.4-0.2,0.7-0.1,0.8,0.4c0.1,0.3,0.2,0.4,0.5,0.4c0.8,0,1.5,0,2.3,0c0.6,0,0.7-0.1,0.7-0.7c0-3.9,0-7.9,0-11.8
		C57.1,17.4,57.1,13.4,57.1,9.5"/>
	<path class="st0" d="M81.8,31c-1.9,0-3.2-1.2-3.2-3c0-1.9,1.3-3.2,3.3-3.2c1.9,0,3.1,1.2,3.1,3.1C85,29.7,83.7,31,81.8,31
		 M89.1,21.7c-0.1-1.1-0.3-2.1-0.8-3.1c-1-1.6-2.5-2.3-4.3-2.5c-2.4-0.3-4.7,0.3-6.9,1.1c-0.3,0.1-0.4,0.3-0.3,0.6
		c0.2,0.6,0.4,1.2,0.6,1.8c0.1,0.3,0.3,0.4,0.6,0.3c0.1,0,0.2-0.1,0.3-0.1c1.3-0.4,2.7-0.7,4.1-0.7c0.3,0,0.7,0,1,0.1
		c1.4,0.4,2,1.2,2,2.7c0,0.4-0.3,0.6-0.7,0.4c-1.5-0.7-3-0.8-4.6-0.5c-2.3,0.5-4,1.7-4.6,4.1c-0.4,1.5-0.3,3,0.2,4.5
		c0.4,1.1,1.2,2.1,2.3,2.6c2.3,1.1,4.6,1.2,6.8-0.2c0.5-0.3,0.7-0.2,0.8,0.3c0.1,0.3,0.2,0.4,0.5,0.4c0.8,0,1.5,0,2.3,0
		c0.6,0,0.7-0.1,0.7-0.7C89.1,31.3,89.1,23.6,89.1,21.7"/>
	<path class="st0" d="M36.2,23.2c-1,0-1.9,0-2.9,0c-0.9,0-1.9,0-2.8,0c-0.4,0-0.6-0.2-0.6-0.6c0-0.3,0.1-0.7,0.2-1
		c0.3-1.3,1.2-1.9,2.5-2.1c1.4-0.2,2.6,0,3.5,1.2c0.5,0.6,0.6,1.4,0.6,2.1C36.7,23,36.5,23.2,36.2,23.2 M40.3,21.9
		C40,19.7,38.9,18,36.9,17c-1.7-0.8-3.4-1-5.2-0.7c-3,0.5-5.3,2.9-5.6,5.9c-0.2,2-0.2,3.9-0.1,5.9c0.1,1.6,0.7,3.1,1.9,4.2
		c2.3,2,5,2.2,7.8,1.4c1.6-0.4,2.7-1.7,3.7-2.9c0.2-0.2,0.1-0.5-0.1-0.7c-0.5-0.4-1-0.7-1.4-1c-0.6-0.4-0.6-0.4-1.1,0.1
		c-1,0.9-2,1.7-3.4,1.8c-1.7,0.1-3.1-0.9-3.5-2.5c-0.1-0.6-0.1-1.1-0.1-1.7c0-0.5,0.2-0.7,0.7-0.7c1.5,0,3.1,0,4.6,0
		c1.6,0,3.1,0,4.7,0c0.4,0,0.6-0.1,0.6-0.5C40.4,24.2,40.4,23.1,40.3,21.9"/>
</g>
</svg>
